X:1
T:Title
%%score { 1 | 2 }
L:1/8
M:3/4
K:Eb
V:1 treble nm="Grand Piano"
V:2 bass 
V:1
 z2 z[Q:1/4=100] B GA | B3 G [EG][DF] | E3 E AG | [EA][Ec] [EB]2 [EG]2 |[M:3/8] [DF]3 | %5
 [DF][DF][DF] |[M:3/4] [DB]3 [FA] [EG][DF] | [EG]3 [EG] [EA][Ec] | [EB]3 [EG] [EG][A,DF] | %9
[M:3/8] [G,E]3 | [GB][EG][FA] |[M:3/4] [GB]3 B cB | [Ge]3 [Ge] [Ge][Ge] | d3 c G=A |[M:3/8] [DB]3 | %15
 BGA |[M:3/4] B3 B cB | [Ge]3 e ec | %18
 B3 G [EG][DF][Q:1/4=99][Q:1/4=97][Q:1/4=96][Q:1/4=94][Q:1/4=93][Q:1/4=91][Q:1/4=90][Q:1/4=88][Q:1/4=87][Q:1/4=85][Q:1/4=84][Q:1/4=82][Q:1/4=81] | %19
[M:3/8] E3[Q:1/4=79][Q:1/4=78][Q:1/4=76] |] %20
V:2
 z2 z [E,G,E] [E,E][E,F,E] | [E,G,E]3 [E,B,E] [B,,B,][B,,A,] | [E,G,]3 [E,G,] [E,CE][E,B,E] | %3
 [C,A,][A,,A,] [E,G,]2 [E,B,]2 |[M:3/8] [B,,B,]3 | [B,,B,][B,,B,][B,,B,] | %6
[M:3/4] [B,,F,]3 [B,,B,] [B,,B,][B,,B,] | [E,B,]3 [_D,B,] [C,A,][A,,A,] | %8
 [B,,G,]3 [B,,B,] [B,,B,]B,, |[M:3/8] E,3 | E,E,E, |[M:3/4] E,3 [E,G,E] [E,A,E][E,G,E] | %12
 [E,B,]3 [E,B,] [E,B,][E,B,] | [F,B,F]3 [F,=A,F] [F,CE][F,E] |[M:3/8] [B,,F,]3 | %15
 [E,G,E][E,E][E,F,E] |[M:3/4] [E,G,E]3 [E,G,E] [E,A,E][E,G,E] | %17
 [E,B,]3[K:treble] [G,B,E] [A,CA][A,EA] | [B,EG]3 [B,E][K:bass] [B,,B,][B,,A,] |[M:3/8] [E,G,]3 |] %20

